X: 23
T: The Meclenburgh Waltz
%R: waltz
B: "Twenty Four Country Dances with Figures for the Year 1809", Button & Whitaker, p.12 #1
F: http://www.vwml.org/browse/browse-collections-dance-tune-books/browse-button1809
Z: 2014 John Chambers <jc:trillian.mit.edu>
N: Fixed conflicting slurs in bars 12,13, by dropping the slur across the bar line.  Other slurrings are possible.
M: 3/8
L: 1/16
K: D
% - - - - - - - - - - - - - - - - - - - - - - - - - - - - -
(FG) |\
(A2d2f2) | (a2f2d2) | (e2g2e2) | (dcBABc) |\
(d2f2d2) | (d2g2b2) | (abagfe) | d4 :|
|: (cd) |\
(e2c2A2) | (g2e2c2) | (d2e2).f2 | (f2e2)a2 |\
(^g2b2)(d2 | c2)(e2a2) | (f2b2^g2) | a4 :|
|: (gf) |\
.g2(gfge) | .f2(fefd) | (efedcB) | (ABAGFG) |\
(A2d2f2) (a2f2d2) | .e2({f}edec) | d4 :|
% - - - - - - - - - - Dance description - - - - - - - - - -
%%begintext align
%% Hands 4 back again, down the mid: up
%% again, Allemande, & Swing Corners.
%%endtext

%%sep 1 1 500
%%sep 1 1 500
